contributed-vectors/caixa.svg

<?xml version="1.0" encoding="UTF-8" standalone="no"?>
<svg
   xmlns:dc="http://purl.org/dc/elements/1.1/"
   xmlns:cc="http://creativecommons.org/ns#"
   xmlns:rdf="http://www.w3.org/1999/02/22-rdf-syntax-ns#"
   xmlns:svg="http://www.w3.org/2000/svg"
   xmlns="http://www.w3.org/2000/svg"
   xmlns:sodipodi="http://sodipodi.sourceforge.net/DTD/sodipodi-0.dtd"
   xmlns:inkscape="http://www.inkscape.org/namespaces/inkscape"
   sodipodi:docname="caixa.svg"
   inkscape:version="1.0.1 (3bc2e813f5, 2020-09-07)"
   version="1.1"
   id="svg2"
   viewBox="0 0 192 192"
   height="192"
   width="192"
   inkscape:export-filename="/home/jphilippe/inkscape/icônes/delta-github/png/caixa.png"
   inkscape:export-xdpi="96"
   inkscape:export-ydpi="96">
  <sodipodi:namedview
     inkscape:document-rotation="0"
     inkscape:window-maximized="1"
     inkscape:window-y="30"
     inkscape:window-x="1920"
     inkscape:window-height="1022"
     inkscape:window-width="1680"
     units="px"
     showgrid="false"
     inkscape:current-layer="layer1"
     inkscape:document-units="px"
     inkscape:cy="252.80594"
     inkscape:cx="-1206.055"
     inkscape:zoom="0.25"
     inkscape:pageshadow="2"
     inkscape:pageopacity="0.0"
     borderopacity="1.0"
     bordercolor="#666666"
     pagecolor="#ffffff"
     id="base"
     inkscape:snap-bbox="false"
     inkscape:object-paths="true"
     inkscape:snap-nodes="true"
     showguides="true"
     inkscape:guide-bbox="true"
     inkscape:snap-object-midpoints="true"
     inkscape:snap-center="true"
     inkscape:snap-global="true"
     inkscape:snap-intersection-paths="true"
     inkscape:snap-smooth-nodes="true"
     inkscape:snap-midpoints="true" />
  <defs
     id="defs4" />
  <metadata
     id="metadata7">
    <rdf:RDF>
      <cc:Work
         rdf:about="">
        <dc:format>image/svg+xml</dc:format>
        <dc:type
           rdf:resource="http://purl.org/dc/dcmitype/StillImage" />
        <dc:title />
      </cc:Work>
    </rdf:RDF>
  </metadata>
  <g
     transform="translate(0,-860.36216)"
     id="layer1"
     inkscape:groupmode="layer"
     inkscape:label="Calque 1">
    <rect
       style="fill:#708cbd;fill-opacity:1;fill-rule:evenodd;stroke:none;stroke-opacity:1"
       width="153"
       height="153"
       x="19.5"
       y="879.86218"
       rx="10"
       id="rect1003"
       ry="10" />
    <g
       id="g968"
       transform="matrix(1.0157906,0,0,1.0157906,-163.73601,-29.625569)"
       style="stroke-width:0.984455">
      <path
         id="polygon934"
         style="fill:#ffffff;fill-opacity:1;stroke-width:7.31115"
         transform="matrix(0.3669485,0,0,0.3669485,64.449037,823.90065)"
         d="m 552.75338,408.43133 42.86624,71.01134 A 1.6932625,1.6932625 119.44129 0 1 594.17,482.011 h -61.097 a 5.3153622,5.3153622 29.440461 0 1 -4.55046,-2.56829 L 485.65346,408.43129 A 1.6932054,1.6932054 119.44046 0 1 487.103,405.863 h 61.1 a 5.315183,5.315183 29.441288 0 1 4.55038,2.56833 z" />
      <path
         id="polygon936"
         style="fill:#f8c18c;fill-opacity:1;stroke-width:7.31115"
         transform="matrix(0.3669485,0,0,0.3669485,64.449037,823.90065)"
         d="m 562.29601,391.81595 56.50098,-71.1269 A 1.4482377,1.4482377 64.231263 0 0 617.663,318.34 h -63.352 a 6.2145136,6.2145136 154.23149 0 0 -4.86603,2.34903 l -56.50194,71.12694 a 1.4482228,1.4482228 64.231495 0 0 1.13397,2.34903 h 63.353 a 6.2144494,6.2144494 154.23126 0 0 4.86601,-2.34905 z" />
      <path
         id="polygon938"
         style="fill:#f8c18c;fill-opacity:1;stroke-width:7.31115"
         transform="matrix(0.3669485,0,0,0.3669485,64.449037,823.90065)"
         d="m 492.92904,480.11692 56.52992,-72.03684 A 1.4592279,1.4592279 64.061281 0 0 548.311,405.72 h -63.353 a 6.1675821,6.1675821 154.06105 0 0 -4.85202,2.36009 l -56.52896,72.03682 a 1.4592428,1.4592428 64.06105 0 0 1.14798,2.36009 h 63.352 a 6.1676453,6.1676453 154.06128 0 0 4.85204,-2.36008 z" />
      <path
         id="polygon940"
         style="fill:#ffffff;fill-opacity:1;stroke-width:7.31115"
         transform="matrix(0.3669485,0,0,0.3669485,64.449037,823.90065)"
         d="m 512.96476,320.01364 41.33948,71.55372 A 1.7314657,1.7314657 119.99162 0 1 552.805,394.165 h -58.728 a 5.1979083,5.1979083 29.991619 0 1 -4.50076,-2.59764 L 448.23676,320.01364 A 1.7314657,1.7314657 119.99162 0 1 449.736,317.416 h 58.728 a 5.1979083,5.1979083 29.991619 0 1 4.50076,2.59764 z" />
    </g>
  </g>
  <style
     type="text/css"
     id="style853">
	.st0{fill:#FFFFFF;}
</style>
</svg>

<svg xmlns="http://www.w3.org/2000/svg" id="svg2" width="192" height="192" version="1.1"><g id="layer1" transform="translate(0 -860.362)"><rect id="rect1003" width="153" height="153" x="19.5" y="879.862" rx="10" ry="10" style="fill:#708cbd;fill-opacity:1;fill-rule:evenodd;stroke:none;stroke-opacity:1"/><g id="g968" style="stroke-width:.984455" transform="translate(-163.736 -29.626) scale(1.01579)"><path id="polygon934" d="m552.753 408.431 42.867 71.012a1.693 1.693 119.441 0 1-1.45 2.568h-61.097a5.315 5.315 29.44 0 1-4.55-2.568l-42.87-71.012a1.693 1.693 119.44 0 1 1.45-2.568h61.1a5.315 5.315 29.441 0 1 4.55 2.568z" style="fill:#fff;fill-opacity:1;stroke-width:7.31115" transform="matrix(.36695 0 0 .36695 64.449 823.9)"/><path id="polygon936" d="m562.296 391.816 56.501-71.127a1.448 1.448 64.231 0 0-1.134-2.349h-63.352a6.215 6.215 154.231 0 0-4.866 2.349l-56.502 71.127a1.448 1.448 64.231 0 0 1.134 2.349h63.353a6.214 6.214 154.231 0 0 4.866-2.349z" style="fill:#f8c18c;fill-opacity:1;stroke-width:7.31115" transform="matrix(.36695 0 0 .36695 64.449 823.9)"/><path id="polygon938" d="m492.929 480.117 56.53-72.037a1.46 1.46 64.061 0 0-1.148-2.36h-63.353a6.168 6.168 154.061 0 0-4.852 2.36l-56.529 72.037a1.46 1.46 64.061 0 0 1.148 2.36h63.352a6.168 6.168 154.061 0 0 4.852-2.36z" style="fill:#f8c18c;fill-opacity:1;stroke-width:7.31115" transform="matrix(.36695 0 0 .36695 64.449 823.9)"/><path id="polygon940" d="m512.965 320.014 41.34 71.553a1.731 1.731 119.992 0 1-1.5 2.598h-58.728a5.198 5.198 29.992 0 1-4.5-2.598l-41.34-71.553a1.731 1.731 119.992 0 1 1.499-2.598h58.728a5.198 5.198 29.992 0 1 4.5 2.598z" style="fill:#fff;fill-opacity:1;stroke-width:7.31115" transform="matrix(.36695 0 0 .36695 64.449 823.9)"/></g></g><style id="style853" type="text/css">.st0{fill:#fff}</style></svg>
